packages/icons/raw/imported/FilesCopy.svg

<svg width="32" height="32" viewBox="0 0 32 32" fill="none" xmlns="http://www.w3.org/2000/svg">
<path d="M8.5 10.6853L8.14396 10.3343C8.05172 10.4278 8 10.5539 8 10.6853H8.5ZM12.6267 6.5V6C12.4929 6 12.3646 6.05365 12.2707 6.14895L12.6267 6.5ZM20.1923 8.5H19.6923H20.1923ZM20.1923 19.8462H20.6923H20.1923ZM20.1923 9.65381C19.9162 9.65381 19.6923 9.87767 19.6923 10.1538C19.6923 10.43 19.9162 10.6538 20.1923 10.6538V9.65381ZM23.8462 12.1538H23.3462H23.8462ZM23.8462 23.5H24.3462H23.8462ZM12.6539 21.8461C12.6539 21.57 12.43 21.3461 12.1539 21.3461C11.8777 21.3461 11.6539 21.57 11.6539 21.8461H12.6539ZM14.1154 7.23071C14.1154 6.95457 13.8915 6.73071 13.6154 6.73071C13.3392 6.73071 13.1154 6.95457 13.1154 7.23071H14.1154ZM13.6154 11.6153V12.1153C13.8915 12.1153 14.1154 11.8915 14.1154 11.6153H13.6154ZM9.23077 11.1153C8.95463 11.1153 8.73077 11.3392 8.73077 11.6153C8.73077 11.8915 8.95463 12.1153 9.23077 12.1153V11.1153ZM8.85604 11.0364L12.9827 6.85105L12.2707 6.14895L8.14396 10.3343L8.85604 11.0364ZM10.5 22.3462H18.1923V21.3462H10.5V22.3462ZM12.6267 7H18.1923V6H12.6267V7ZM19.6923 8.5L19.6923 19.8462H20.6923L20.6923 8.5H19.6923ZM8 10.6853V19.8462H9V10.6853H8ZM10.5 21.3462C9.67157 21.3462 9 20.6746 9 19.8462H8C8 21.2269 9.11929 22.3462 10.5 22.3462V21.3462ZM18.1923 22.3462C19.573 22.3462 20.6923 21.2269 20.6923 19.8462H19.6923C19.6923 20.6746 19.0207 21.3462 18.1923 21.3462V22.3462ZM18.1923 7C19.0207 7 19.6923 7.67157 19.6923 8.5H20.6923C20.6923 7.11929 19.573 6 18.1923 6V7ZM14.1539 26H21.8462V25H14.1539V26ZM20.1923 10.6538H21.8462V9.65381H20.1923V10.6538ZM23.3462 12.1538L23.3462 23.5H24.3462L24.3462 12.1538H23.3462ZM11.6539 21.8461V23.5H12.6539V21.8461H11.6539ZM14.1539 25C13.3254 25 12.6539 24.3284 12.6539 23.5H11.6539C11.6539 24.8807 12.7732 26 14.1539 26V25ZM21.8462 26C23.2269 26 24.3462 24.8807 24.3462 23.5H23.3462C23.3462 24.3284 22.6746 25 21.8462 25V26ZM21.8462 10.6538C22.6746 10.6538 23.3462 11.3254 23.3462 12.1538H24.3462C24.3462 10.7731 23.2269 9.65381 21.8462 9.65381V10.6538ZM13.1154 7.23071V11.6153H14.1154V7.23071H13.1154ZM13.6154 11.1153H9.23077V12.1153H13.6154V11.1153Z" fill="black"/>
</svg>

<svg width="32" height="32" fill="none" xmlns="http://www.w3.org/2000/svg"><path d="m8.5 10.685-.356-.35a.5.5 0 0 0-.144.35h.5ZM12.627 6.5V6a.5.5 0 0 0-.356.149l.356.351Zm7.565 2h-.5.5Zm0 11.346h.5-.5Zm0-10.192a.5.5 0 0 0 0 1v-1Zm3.654 2.5h-.5.5Zm0 11.346h.5-.5Zm-11.192-1.654a.5.5 0 0 0-1 0h1Zm1.461-14.615a.5.5 0 0 0-1 0h1Zm-.5 4.384v.5a.5.5 0 0 0 .5-.5h-.5Zm-4.384-.5a.5.5 0 0 0 0 1v-1Zm-.375-.079 4.127-4.185-.712-.702-4.127 4.185.712.702Zm1.644 11.31h7.692v-1H10.5v1ZM12.627 7h5.565V6h-5.565v1Zm7.065 1.5v11.346h1V8.5h-1ZM8 10.685v9.161h1v-9.16H8Zm2.5 10.661a1.5 1.5 0 0 1-1.5-1.5H8a2.5 2.5 0 0 0 2.5 2.5v-1Zm7.692 1a2.5 2.5 0 0 0 2.5-2.5h-1a1.5 1.5 0 0 1-1.5 1.5v1Zm0-15.346a1.5 1.5 0 0 1 1.5 1.5h1a2.5 2.5 0 0 0-2.5-2.5v1Zm-4.038 19h7.692v-1h-7.692v1Zm6.038-15.346h1.654v-1h-1.654v1Zm3.154 1.5V23.5h1V12.154h-1Zm-11.692 9.692V23.5h1v-1.654h-1Zm2.5 3.154a1.5 1.5 0 0 1-1.5-1.5h-1a2.5 2.5 0 0 0 2.5 2.5v-1Zm7.692 1a2.5 2.5 0 0 0 2.5-2.5h-1a1.5 1.5 0 0 1-1.5 1.5v1Zm0-15.346a1.5 1.5 0 0 1 1.5 1.5h1a2.5 2.5 0 0 0-2.5-2.5v1Zm-8.73-3.423v4.384h1V7.231h-1Zm.5 3.884H9.23v1h4.384v-1Z" fill="#000"/></svg>
